packages/kaspersky-hexa-ui-icons/src/iconsSVGs/24/ConnectionEthernet.svg

<svg width="24" height="24" viewBox="0 0 24 24" fill="none" xmlns="http://www.w3.org/2000/svg">
<path fill-rule="evenodd" clip-rule="evenodd" d="M17 3C19.2091 3 21 4.79086 21 7V14C21 15.8638 19.7252 17.4299 18 17.874V18C18 19.6569 16.6569 21 15 21H9C7.34315 21 6 19.6569 6 18V17.874C4.27477 17.4299 3 15.8638 3 14V7C3 4.79086 4.79086 3 7 3H17ZM5 7C5 5.89543 5.89543 5 7 5V8C7 8.55228 7.44772 9 8 9C8.55228 9 9 8.55228 9 8V5H11V8C11 8.55228 11.4477 9 12 9C12.5523 9 13 8.55228 13 8V5H15V8C15 8.55228 15.4477 9 16 9C16.5523 9 17 8.55228 17 8V5C18.1046 5 19 5.89543 19 7V14C19 15.1046 18.1046 16 17 16H16V18C16 18.5523 15.5523 19 15 19H9C8.44772 19 8 18.5523 8 18V16H7C5.89543 16 5 15.1046 5 14V7Z" fill="black"/>
</svg>

<svg xmlns="http://www.w3.org/2000/svg" width="24" height="24" fill="none" viewBox="0 0 24 24"><path fill="#000" fill-rule="evenodd" d="M17 3c2.2091 0 4 1.7909 4 4v7c0 1.8638-1.2748 3.4299-3 3.874V18c0 1.6569-1.3431 3-3 3H9c-1.6569 0-3-1.3431-3-3v-.126C4.2748 17.4299 3 15.8638 3 14V7c0-2.2091 1.7909-4 4-4zM5 7c0-1.1046.8954-2 2-2v3c0 .5523.4477 1 1 1s1-.4477 1-1V5h2v3c0 .5523.4477 1 1 1s1-.4477 1-1V5h2v3c0 .5523.4477 1 1 1s1-.4477 1-1V5c1.1046 0 2 .8954 2 2v7c0 1.1046-.8954 2-2 2h-1v2c0 .5523-.4477 1-1 1H9c-.5523 0-1-.4477-1-1v-2H7c-1.1046 0-2-.8954-2-2z"/></svg>
